icons/apps/48/tor-browser.svg

<?xml version="1.0" encoding="UTF-8" standalone="no"?>
<svg
   xmlns:dc="http://purl.org/dc/elements/1.1/"
   xmlns:cc="http://creativecommons.org/ns#"
   xmlns:rdf="http://www.w3.org/1999/02/22-rdf-syntax-ns#"
   xmlns:svg="http://www.w3.org/2000/svg"
   xmlns="http://www.w3.org/2000/svg"
   xmlns:xlink="http://www.w3.org/1999/xlink"
   xmlns:sodipodi="http://sodipodi.sourceforge.net/DTD/sodipodi-0.dtd"
   xmlns:inkscape="http://www.inkscape.org/namespaces/inkscape"
   version="1.1"
   id="svg5453"
   height="48"
   width="48"
   inkscape:version="0.91 r13725"
   sodipodi:docname="tor-browser.svg">
  <sodipodi:namedview
     pagecolor="#ffffff"
     bordercolor="#666666"
     borderopacity="1"
     objecttolerance="10"
     gridtolerance="10"
     guidetolerance="10"
     inkscape:pageopacity="0"
     inkscape:pageshadow="2"
     inkscape:window-width="1920"
     inkscape:window-height="1023"
     id="namedview42"
     showgrid="true"
     inkscape:zoom="13.906433"
     inkscape:cx="27.402017"
     inkscape:cy="20.601041"
     inkscape:window-x="0"
     inkscape:window-y="0"
     inkscape:window-maximized="1"
     inkscape:current-layer="svg5453"
     inkscape:snap-bbox="true"
     inkscape:object-nodes="true"
     inkscape:snap-global="false">
    <inkscape:grid
       type="xygrid"
       id="grid4168" />
  </sodipodi:namedview>
  <defs
     id="defs5455">
    <linearGradient
       y2="826.39728"
       x2="863.25598"
       y1="143.90959"
       x1="224.72943"
       gradientUnits="userSpaceOnUse"
       id="linearGradient4199"
       xlink:href="#linearGradient4201"
       gradientTransform="matrix(0.04237288,0,0,0.04237048,2.3029648,2.2204446)" />
    <linearGradient
       id="linearGradient4201">
      <stop
         style="stop-color:#000000;stop-opacity:1"
         offset="0"
         id="stop4203" />
      <stop
         style="stop-color:#000000;stop-opacity:0;"
         offset="1"
         id="stop4205" />
    </linearGradient>
    <linearGradient
       y2="36.561501"
       x2="515.22577"
       y1="984.65027"
       x1="515.22577"
       gradientUnits="userSpaceOnUse"
       id="linearGradient4179"
       xlink:href="#linearGradient4300-1-5"
       gradientTransform="matrix(0.04237288,0,0,0.04237292,2.3029647,2.2203373)" />
    <linearGradient
       id="linearGradient4300-1-5"
       inkscape:collect="always">
      <stop
         id="stop4302-0-2"
         offset="0"
         style="stop-color:#663579;stop-opacity:1" />
      <stop
         id="stop4304-6-4"
         offset="1"
         style="stop-color:#16a085;stop-opacity:1" />
    </linearGradient>
    <linearGradient
       inkscape:collect="always"
       xlink:href="#linearGradient4164"
       id="linearGradient4170"
       x1="37.459763"
       y1="35.600788"
       x2="23.680101"
       y2="21.466877"
       gradientUnits="userSpaceOnUse" />
    <linearGradient
       inkscape:collect="always"
       id="linearGradient4164">
      <stop
         style="stop-color:#735a93;stop-opacity:1;"
         offset="0"
         id="stop4166" />
      <stop
         style="stop-color:#8b6cb1;stop-opacity:1"
         offset="1"
         id="stop4168" />
    </linearGradient>
  </defs>
  <metadata
     id="metadata5458">
    <rdf:RDF>
      <cc:Work
         rdf:about="">
        <dc:format>image/svg+xml</dc:format>
        <dc:type
           rdf:resource="http://purl.org/dc/dcmitype/StillImage" />
        <dc:title />
      </cc:Work>
    </rdf:RDF>
  </metadata>
  <path
     style="fill:url(#linearGradient4179);fill-opacity:1;image-rendering:optimizeSpeed"
     d="m 43.394067,18.915268 c -0.04661,-0.184322 -0.09958,-0.381357 -0.154661,-0.576272 -0.105932,-0.370763 -0.226695,-0.745763 -0.358051,-1.116526 -0.273305,-0.773306 -0.599576,-1.527544 -0.980932,-2.273307 -0.161017,-0.31356 -0.336864,-0.633476 -0.521187,-0.949154 -0.86017,-1.461866 -1.940678,-2.84746 -3.23517,-4.1419528 C 36.493643,8.2076309 34.697033,6.9046637 32.741524,5.944917 31.07627,5.1271196 29.290253,4.5656785 27.396185,4.262712 26.707626,4.1525425 26.006355,4.0762712 25.275423,4.036017 24.864406,4.0127118 24.434321,4 23.999999,4 c -0.396186,0 -0.788136,0.010594 -1.182203,0.03178 -0.283899,0.014831 -0.565678,0.033898 -0.849577,0.061441 -2.408898,0.2203392 -4.652542,0.8389838 -6.73517,1.8644084 C 13.300846,6.9067823 11.508473,8.2076309 9.8580495,9.8580562 6.0762699,13.639839 4.1249986,18.184335 4.0063546,23.48095 q -0.00636,0.258475 -0.00636,0.519068 c 0,5.52331 1.9533899,10.239417 5.8580509,14.144082 3.6122875,3.612291 7.9173735,5.552971 12.9110175,5.822038 0.01483,0.0021 0.03178,0.0021 0.04873,0.0042 0.0064,0 0.01059,0 0.01695,0 0.360169,0.01907 0.70339,0.02966 1.038135,0.02966 0.05085,0 0.08898,0 0.127119,0 0.436441,0 0.868644,-0.01271 1.275424,-0.0339 0.105932,-0.0064 0.201271,-0.01271 0.294491,-0.01907 0.855932,-0.06144 1.690678,-0.171611 2.487288,-0.326272 0.336865,-0.06567 0.669492,-0.13983 0.991526,-0.21822 3.423728,-0.860171 6.447033,-2.610172 9.095338,-5.258479 0.258475,-0.258475 0.508475,-0.519069 0.741526,-0.775425 1.688559,-1.858053 2.955509,-3.881359 3.807204,-6.080514 0.385593,-0.993645 0.684322,-2.023308 0.902542,-3.095342 0.220339,-1.093221 0.351695,-2.230934 0.391949,-3.408902 0.0085,-0.256356 0.01271,-0.519068 0.01271,-0.783899 0,-0.02754 0,-0.0572 0,-0.08475 0,-0.01483 0,-0.02754 0,-0.04237 0,-0.131357 -0.0021,-0.262712 -0.0042,-0.396187 -0.03602,-1.576273 -0.235169,-3.093223 -0.601695,-4.561445 z"
     id="path1"
     inkscape:connector-curvature="0" />
  <path
     style="opacity:0.2;fill:url(#linearGradient4199);fill-opacity:1;image-rendering:optimizeSpeed"
     d="M 43.911016,26.017823 27.990278,9.0014136 25.787356,10.975761 22.320102,7.5446268 l -1.268257,3.7863182 2.990122,3.097863 -9.429677,23.80866 5.394065,5.393761 C 32.837816,39.949701 42.607338,37.122386 43.911016,26.017823 Z"
     id="path2"
     inkscape:connector-curvature="0"
     sodipodi:nodetypes="ccccccccc" />
  <path
     style="display:inline;opacity:1;fill:#442c58;fill-opacity:1;stroke:none;stroke-width:3.06666756;image-rendering:optimizeSpeed"
     d="m 4.0117051,23.500003 c -0.00399,0.166549 -0.011705,0.332439 -0.011705,0.499999 0,11.08 8.9200069,20.000001 19.9999979,20.000001 11.080001,0 19.999999,-8.920001 19.999999,-20.000001 0,-0.16756 -0.008,-0.33345 -0.0117,-0.499999 -0.264674,10.84613 -9.076166,19.500004 -19.988272,19.500004 -10.912133,0 -19.7236209,-8.653874 -19.9882789,-19.500004 z"
     id="rect4409-6"
     inkscape:connector-curvature="0" />
  <path
     style="fill:#fdfcdf;fill-opacity:1;image-rendering:optimizeSpeed"
     d="m 21,13 c -0.65048,1.695535 -0.765582,3.177015 -2.429688,4.203125 C 14.30304,19.267797 11.005823,23.927539 11,29 c 0,7.179702 5.820298,13 13,13 l 0,-3 C 18.477153,39 14,34.522847 14,29 14,23.477153 18.477153,19 24,19 l 0,-1 0,-2 0,-2 c -1.216102,-0.09321 -2.120326,-0.484592 -3,-1 z"
     id="path3"
     inkscape:connector-curvature="0"
     sodipodi:nodetypes="cccccsccccc" />
  <path
     style="fill:url(#linearGradient4170);fill-opacity:1;image-rendering:optimizeSpeed"
     d="M 27 13 C 26.216631 13.421224 25.027542 14.076266 24 14 L 24 16 L 24 18 L 24 42 A 13 13 0 0 0 37 29 A 13 13 0 0 0 29.322266 17.15625 C 28.042019 16.291989 27.187517 14.75621 27 13 z "
     id="path5-7" />
  <path
     style="fill:#78af52;fill-opacity:1;image-rendering:optimizeSpeed"
     d="m 20.427739,6 c -0.0176,0.055019 -0.03519,0.1100362 -0.04776,0.1565901 Q 18.821445,11.313482 23.655421,13 C 24.598078,10.365478 23.607654,8.0906893 20.671573,6.1565901 20.601188,6.1100362 20.51572,6.0550181 20.427739,6 Z"
     id="path8"
     inkscape:connector-curvature="0" />
  <path
     style="fill:#78af52;fill-opacity:1;image-rendering:optimizeSpeed"
     d="M 25.037464,13 C 24.788684,10.980197 25.77924,9.6386142 28,9 c -0.241932,2.222772 -1.227923,3.554456 -2.962536,4"
     id="path9"
     inkscape:connector-curvature="0" />
  <path
     style="opacity:1;fill:#eaeace;fill-opacity:1;stroke:none;stroke-width:2;stroke-linecap:square;stroke-linejoin:miter;stroke-miterlimit:4;stroke-dasharray:none;stroke-opacity:1"
     d="M 24,19 A 10,10 0 0 0 14,29 10,10 0 0 0 24,39 l 0,-3 a 7,7 0 0 1 -7,-7 7,7 0 0 1 7,-7 l 0,-3 z"
     id="path4196-3"
     inkscape:connector-curvature="0" />
  <path
     style="opacity:1;fill:#d1d1b8;fill-opacity:1;stroke:none;stroke-width:2;stroke-linecap:square;stroke-linejoin:miter;stroke-miterlimit:4;stroke-dasharray:none;stroke-opacity:1"
     d="m 24,22 a 7,7 0 0 0 -7,7 7,7 0 0 0 7,7 l 0,-3 a 4,4 0 0 1 -4,-4 4,4 0 0 1 4,-4 l 0,-3 z"
     id="path4196-3-4"
     inkscape:connector-curvature="0" />
  <path
     style="opacity:1;fill:#bfbfa9;fill-opacity:1;stroke:none;stroke-width:2;stroke-linecap:square;stroke-linejoin:miter;stroke-miterlimit:4;stroke-dasharray:none;stroke-opacity:1"
     d="m 24,25 a 4,4 0 0 0 -4,4 4,4 0 0 0 4,4 l 0,-8 z"
     id="path4196-3-4-0"
     inkscape:connector-curvature="0" />
</svg>

<svg width="48" xmlns="http://www.w3.org/2000/svg" height="48">
 <defs>
  <linearGradient id="a" y1="8.318" y2="37.24" x1="11.825" x2="38.882" gradientUnits="userSpaceOnUse">
   <stop/>
   <stop offset="1" stop-opacity="0"/>
  </linearGradient>
  <linearGradient id="b" y1="43.943" y2="3.77" x2="0" gradientUnits="userSpaceOnUse">
   <stop stop-color="#663579"/>
   <stop offset="1" stop-color="#16a085"/>
  </linearGradient>
  <linearGradient id="c" y1="35.601" x1="37.46" y2="21.467" x2="23.68" gradientUnits="userSpaceOnUse">
   <stop stop-color="#735a93"/>
   <stop offset="1" stop-color="#8b6cb1"/>
  </linearGradient>
 </defs>
 <g image-rendering="optimizeSpeed">
  <path fill="url(#b)" d="m43.39 18.915c-.047-.184-.1-.381-.155-.576-.106-.371-.227-.746-.358-1.117-.273-.773-.6-1.528-.981-2.273-.161-.314-.337-.633-.521-.949-.86-1.462-1.941-2.847-3.235-4.142-1.65-1.65-3.447-2.953-5.403-3.913-1.665-.818-3.451-1.379-5.345-1.682-.689-.11-1.39-.186-2.121-.227-.411-.023-.841-.036-1.275-.036-.396 0-.788.011-1.182.032-.284.015-.566.034-.85.061-2.409.22-4.653.839-6.735 1.864-1.932.949-3.725 2.25-5.375 3.9-3.782 3.782-5.733 8.326-5.852 13.623q-.006.258-.006.519c0 5.523 1.953 10.239 5.858 14.14 3.612 3.612 7.917 5.553 12.911 5.822.015.002.032.002.049.004.006 0 .011 0 .017 0 .36.019.703.03 1.038.03.051 0 .089 0 .127 0 .436 0 .869-.013 1.275-.034.106-.006.201-.013.294-.019.856-.061 1.691-.172 2.487-.326.337-.066.669-.14.992-.218 3.424-.86 6.447-2.61 9.1-5.258.258-.258.508-.519.742-.775 1.689-1.858 2.956-3.881 3.807-6.081.386-.994.684-2.023.903-3.095.22-1.093.352-2.231.392-3.409.008-.256.013-.519.013-.784 0-.028 0-.057 0-.085 0-.015 0-.028 0-.042 0-.131-.002-.263-.004-.396-.036-1.576-.235-3.093-.602-4.561"/>
  <path opacity=".2" fill="url(#a)" d="m43.911 26.02l-15.921-17.02-2.203 1.974-3.467-3.431-1.268 3.786 2.99 3.098-9.43 23.809 5.394 5.394c12.831-3.682 22.601-6.509 23.905-17.613"/>
  <path fill="#442c58" stroke-width="3.067" d="m4.01 23.5c-.004.167-.012.332-.012.5 0 11.08 8.92 20 20 20 11.08 0 20-8.92 20-20 0-.168-.008-.333-.012-.5-.265 10.846-9.08 19.5-19.988 19.5-10.912 0-19.724-8.654-19.988-19.5"/>
  <path fill="#fdfcdf" d="m21 13c-.65 1.696-.766 3.177-2.43 4.203-4.267 2.065-7.564 6.724-7.57 11.797 0 7.18 5.82 13 13 13v-3c-5.523 0-10-4.477-10-10 0-5.523 4.477-10 10-10v-5c-1.216-.093-2.12-.485-3-1"/>
  <path fill="url(#c)" d="m27 13c-.783.421-1.972 1.076-3 1v28a13 13 0 0 0 13 -13 13 13 0 0 0 -7.677734 -11.84375c-1.28-.864-2.135-2.4-2.322-4.156"/>
  <g fill="#78af52">
   <path d="m20.428 6c-.018.055-.035.11-.048.157q-1.559 5.157 3.275 6.843c.943-2.635-.048-4.909-2.984-6.843-.07-.047-.156-.102-.244-.157"/>
   <path d="m25.04 13c-.249-2.02.742-3.361 2.963-4-.242 2.223-1.228 3.554-2.963 4"/>
  </g>
 </g>
 <g stroke-width="2">
  <path fill="#eaeace" d="M24 19A10 10 0 0 0 14 29 10 10 0 0 0 24 39v-3a7 7 0 0 1 -7 -7 7 7 0 0 1 7 -7z"/>
  <path fill="#d1d1b8" d="m24 22a7 7 0 0 0 -7 7 7 7 0 0 0 7 7v-3a4 4 0 0 1 -4 -4 4 4 0 0 1 4 -4z"/>
  <path fill="#bfbfa9" d="m24 25a4 4 0 0 0 -4 4 4 4 0 0 0 4 4z"/>
 </g>
</svg>
